X:1
T:Standin In The Need of Prayer
T:My good Lord's been there
T:Copyright 1881 by The Riverside Press
T:Rodeheaver's Plantation Melodies
T:Rodeheaver's Plantation Melodies
Z:Rodeheaver's Plantation Melodies
%%score [ 1 2 3 4 ]
L:1/8
Q:1/4=100
M:2/2
K:G
V:1 treble nm="Soprano" snm="S."
V:2 treble nm="Alto" snm="A."
V:3 bass nm="Tenor" snm="T."
V:4 bass nm="Bass" snm="B."
V:1
 D2 D2 D4 | G2 G6 | A2 (A4 G2) | B2 (B4 d2) | D2 D2 D4 | G2 G4 GG | A2 A2 G2 F2 | G6 || D2 | %9
 G2 B6 | c2 B2 A4 | F2 (A4 c2) | B2 A2 G4 | G2 (B4 d2) | c2 B2 A2 A2 | A2 A2 B2 A2 | G6 z2!D.C.! |] %17
V:2
 D2 D2 D4 | D2 D6 | F2 (F4 G2) | G2 (G4 B2) | D2 D2 D4 | D2 D4 DD | D2 D2 D2 D2 | D6 || D2 | %9
w: My good Lord's|been here,|been here- ,|been here- .|My good Lord's|been here. And He's|blessed my soul and|gone.|O|
 G2 G6 | A2 G2 F4 | F2 (F4 A2) | A2 F2 G4 | G2 (G4 B2) | A2 G2 F2 F2 | F2 F2 G2 F2 | G6 z2 |] %17
w: bro- thers,|where were you,|bro- thers- *|where were you,|bro- thers- *|where were you. When|my good Lord was|here?|
V:3
 B,2 B,2 B,4 | B,2 B,6 | D2 D6 | D2 D6 | B,2 B,2 B,4 | B,2 B,4 B,B, | C2 C2 B,2 A,2 | [G,B,]6 || %8
 B,2 | B,2 D6 | D2 D2 D4 | D2 D6 | D2 C2 B,4 | B,2 D6 | D2 D2 D2 C2 | C2 C2 D2 C2 | B,6 z2 |] %17
V:4
 G,2 G,2 G,4 | G,2 G,6 | D,2 D,6 | G,2 G,6 | G,2 G,2 G,4 | G,2 G,4 G,G, | D,2 D,2 D,2 D,2 | G,,6 || %8
 G,2 | G,2 G,6 | D,2 D,2 D,4 | D,2 D,6 | D,2 D,2 G,,4 | G,2 G,6 | D,2 D,2 D,2 D,2 | %15
 D,2 D,2 D,2 D,2 | G,,6 z2 |] %17

